openmetadata-ui/src/main/resources/ui/src/assets/svg/markdown.svg

<svg xmlns="http://www.w3.org/2000/svg" width="208" height="128" fill="none"><path stroke="#6B7280" stroke-width="10" d="M15 5h178c5.523 0 10 4.477 10 10v98c0 5.523-4.477 10-10 10H15c-5.523 0-10-4.477-10-10V15C5 9.477 9.477 5 15 5Z"/><path fill="#6B7280" d="M30 98V30h20l20 25 20-25h20v68H90V59L70 84 50 59v39H30Zm125 0-30-33h20V30h20v35h20l-30 33Z"/></svg>

<svg width="208" height="128" viewBox="0 0 208 128" fill="none" xmlns="http://www.w3.org/2000/svg">
<path d="M15 5H193C198.523 5 203 9.477 203 15V113C203 118.523 198.523 123 193 123H15C9.477 123 5 118.523 5 113V15C5 9.477 9.477 5 15 5Z" stroke="#6B7280" stroke-width="10"/>
<path d="M30 98V30H50L70 55L90 30H110V98H90V59L70 84L50 59V98H30ZM155 98L125 65H145V30H165V65H185L155 98Z" fill="#6B7280"/>
</svg>
